X:1
T: The Haggis
T: Version 2
R:Reel
Q: 232
K:F
M:4/4
L:1/8
|:F|E1/2F1/2G Gc GE EF|E1/2F1/2G G=B c2 ce|E1/2F1/2G Gc Gc GE|DD BD F2 FF|
E1/2F1/2G Gc GE EF|E1/2F1/2G G=B c2 ce|E1/2F1/2G Gc Gc GE|DD BD F2 Fg|
ec gc ec cg|ec gc f2 fa|ec gc ac gc|d1/2d1/2d bd f2 fa|
ec gc ac cg|ec gc f2 fa|ec d=B cA GE|D1/2D1/2D BD F2 F:|
